svgs/vw.svg

<svg xmlns="http://www.w3.org/2000/svg" viewBox="0 0 192 192"><path d="M73.434 173.28c-.625-1.496-1.136-3.034-1.136-3.419 0-.385-.466-1.519-1.037-2.519-.57-1-1.039-2.302-1.041-2.892-.002-.591-.317-1.25-.699-1.466-.382-.216-.694-.975-.694-1.688 0-.712-.428-2.195-.95-3.296-.522-1.1-1.524-3.715-2.225-5.81-.702-2.095-1.524-4.081-1.827-4.412-.304-.332-.552-1.108-.552-1.725s-.432-2.059-.96-3.206c-.527-1.147-1.491-3.657-2.141-5.577-.651-1.921-1.442-4.064-1.76-4.762a20.313 20.313 0 0 1-.923-2.54c-.353-1.298-1.627-4.71-2.609-6.984-.301-.698-1.241-3.27-2.089-5.714-.848-2.445-1.804-4.716-2.125-5.048-.321-.332-.584-1.228-.584-1.991 0-.763-.467-2.206-1.037-3.206-.571-1-1.039-2.302-1.042-2.892-.002-.591-.316-1.251-.698-1.466-.382-.216-.694-.976-.694-1.688s-.428-2.195-.95-3.296c-.523-1.1-1.524-3.715-2.226-5.81-.701-2.095-1.524-4.081-1.827-4.413-.303-.332-.552-1.108-.552-1.724 0-.617-.431-2.06-.959-3.207-.528-1.146-1.491-3.656-2.142-5.577-.65-1.92-1.421-4.063-1.714-4.762-1.363-3.258-2.299-5.848-2.638-7.301-.203-.873-.591-1.873-.86-2.222-.27-.35-1.513-3.635-2.762-7.302s-2.704-7.567-3.234-8.667c-.531-1.101-.964-2.441-.964-2.979 0-.537-.313-1.154-.695-1.37-.381-.216-.694-.975-.694-1.687 0-.713-.427-2.196-.95-3.296-.522-1.101-1.524-3.715-2.225-5.81-.702-2.096-1.524-4.081-1.827-4.413-.304-.332-.552-1.132-.552-1.778 0-.646-.427-1.946-.949-2.889-.521-.943-1.16-2.786-1.42-4.095L16 16h17.485c15.838 0 17.572.105 18.407 1.111.508.611.933 1.602.945 2.201.012.599.462 2.028 1.001 3.174.538 1.147 1.824 4.657 2.858 7.8 1.033 3.143 2.279 6.714 2.769 7.936.49 1.222 1.739 4.794 2.777 7.937 1.038 3.143 2.278 6.714 2.757 7.936.479 1.222 1.407 3.794 2.061 5.714.655 1.921 1.433 4.064 1.729 4.762.296.699 1.081 2.984 1.746 5.08.664 2.095 1.467 4.274 1.785 4.842.318.568.791 2.071 1.051 3.341.26 1.269.75 2.463 1.089 2.655.338.191.617.974.62 1.739.002.765.471 2.209 1.041 3.21.57 1 1.037 2.324 1.037 2.943 0 .618.467 1.943 1.037 2.943.571 1 1.039 2.445 1.042 3.21.002.765.316 1.568.698 1.783.382.216.694.938.694 1.604 0 .666.438 2.149.974 3.295.535 1.147 1.516 3.8 2.18 5.895.663 2.095 1.431 4.381 1.706 5.079.275.699.988 2.842 1.584 4.762a921.831 921.831 0 0 0 2.18 6.899c.603 1.873 1.096 3.928 1.096 4.565 0 .638.313 1.336.694 1.552.382.216.695 1.057.695 1.869 0 .813.443 2.867.984 4.566a754.127 754.127 0 0 1 2.203 7.087c.67 2.2 1.479 4.147 1.798 4.327.755.427 3.346-5.109 3.346-7.15 0-.867.321-2.125.713-2.795.393-.671 1-2.437 1.351-3.927 1.571-6.676 2.291-9.098 2.869-9.659.341-.332.621-1.371.621-2.309 0-.938.467-2.523 1.037-3.524.57-1 1.039-2.547 1.041-3.437.002-.891.253-1.891.556-2.223.304-.331 1.119-2.317 1.812-4.412.693-2.095 1.658-4.81 2.145-6.032.486-1.222 1.74-4.794 2.786-7.936 1.046-3.143 2.332-6.615 2.858-7.715.526-1.101.956-2.544.956-3.207 0-.663.248-1.477.552-1.809.303-.331 1.118-2.317 1.811-4.412.693-2.095 1.665-4.81 2.16-6.032.495-1.222 1.439-3.936 2.096-6.032.658-2.095 1.469-4.081 1.801-4.412.333-.332.605-1.228.605-1.991 0-.764.467-2.206 1.037-3.207.571-1 1.039-2.404 1.042-3.12.002-.716.252-1.573.556-1.905.303-.331 1.118-2.317 1.812-4.412.693-2.096 1.658-4.81 2.144-6.032.487-1.222 1.741-4.794 2.787-7.937 1.046-3.142 2.332-6.614 2.858-7.715.525-1.1.955-2.461.955-3.024 0-.563.29-1.52.644-2.126.354-.607.813-1.603 1.02-2.214.344-1.017 1.754-1.111 16.597-1.111 8.922 0 16.395.159 16.608.354.355.325-.242 2.461-1.589 5.678-.292.698-1.063 2.841-1.714 4.762-.65 1.92-1.614 4.43-2.141 5.577-.528 1.146-.96 2.589-.96 3.206s-.248 1.393-.552 1.725c-.303.331-1.115 2.317-1.803 4.412-.689 2.095-1.69 4.748-2.226 5.895-.535 1.147-.973 2.589-.973 3.206s-.248 1.393-.552 1.725c-.303.331-1.125 2.317-1.827 4.412-.701 2.096-1.703 4.71-2.225 5.811-.523 1.1-.95 2.583-.95 3.295 0 .713-.312 1.472-.694 1.688-.382.216-.695.832-.695 1.37 0 .538-.433 1.878-.964 2.978-.53 1.101-1.983 5.001-3.229 8.668-1.246 3.666-2.531 6.938-2.855 7.27-.324.331-.589 1.107-.589 1.724s-.442 2.06-.984 3.206c-.541 1.147-1.521 3.8-2.178 5.895-.657 2.095-1.422 4.095-1.7 4.444-.278.35-.672 1.35-.875 2.223-.339 1.453-1.275 4.043-2.639 7.301-.292.699-1.063 2.842-1.713 4.762-.651 1.921-1.614 4.43-2.142 5.577-.528 1.147-.96 2.59-.96 3.207 0 .616-.248 1.392-.551 1.724-.304.332-1.115 2.318-1.804 4.413-.689 2.095-1.69 4.748-2.225 5.894-.536 1.147-.974 2.59-.974 3.207 0 .616-.248 1.392-.551 1.724-.304.332-1.126 2.318-1.827 4.413-.702 2.095-1.703 4.71-2.226 5.81-.522 1.1-.95 2.543-.95 3.206 0 .663-.248 1.477-.551 1.809-.304.332-1.126 2.318-1.828 4.413-.701 2.095-1.702 4.71-2.225 5.81-.522 1.101-.95 2.401-.95 2.889 0 .489-.39 1.658-.868 2.598l-.867 1.709-21.602.005L74.57 176l-1.136-2.72Z"/></svg>

<svg
    xmlns="http://www.w3.org/2000/svg"
    viewBox="0 0 192 192"
    id="vector">
    <g id="group">
        <path
            id="path"
            d="M 73.434 173.28 C 72.809 171.784 72.298 170.246 72.298 169.861 C 72.298 169.476 71.832 168.342 71.261 167.342 C 70.691 166.342 70.222 165.04 70.22 164.45 C 70.218 163.859 69.903 163.2 69.521 162.984 C 69.139 162.768 68.827 162.009 68.827 161.296 C 68.827 160.584 68.399 159.101 67.877 158 C 67.355 156.9 66.353 154.285 65.652 152.19 C 64.95 150.095 64.128 148.109 63.825 147.778 C 63.521 147.446 63.273 146.67 63.273 146.053 C 63.273 145.436 62.841 143.994 62.313 142.847 C 61.786 141.7 60.822 139.19 60.172 137.27 C 59.521 135.349 58.73 133.206 58.412 132.508 C 58.094 131.809 57.679 130.666 57.489 129.968 C 57.136 128.67 55.862 125.258 54.88 122.984 C 54.579 122.286 53.639 119.714 52.791 117.27 C 51.943 114.825 50.987 112.554 50.666 112.222 C 50.345 111.89 50.082 110.994 50.082 110.231 C 50.082 109.468 49.615 108.025 49.045 107.025 C 48.474 106.025 48.006 104.723 48.003 104.133 C 48.001 103.542 47.687 102.882 47.305 102.667 C 46.923 102.451 46.611 101.691 46.611 100.979 C 46.611 100.267 46.183 98.784 45.661 97.683 C 45.138 96.583 44.137 93.968 43.435 91.873 C 42.734 89.778 41.911 87.792 41.608 87.46 C 41.305 87.128 41.056 86.352 41.056 85.736 C 41.056 85.119 40.625 83.676 40.097 82.529 C 39.569 81.383 38.606 78.873 37.955 76.952 C 37.305 75.032 36.534 72.889 36.241 72.19 C 34.878 68.932 33.942 66.342 33.603 64.889 C 33.4 64.016 33.012 63.016 32.743 62.667 C 32.473 62.317 31.23 59.032 29.981 55.365 C 28.732 51.698 27.277 47.798 26.747 46.698 C 26.216 45.597 25.783 44.257 25.783 43.719 C 25.783 43.182 25.47 42.565 25.088 42.349 C 24.707 42.133 24.394 41.374 24.394 40.662 C 24.394 39.949 23.967 38.466 23.444 37.366 C 22.922 36.265 21.92 33.651 21.219 31.556 C 20.517 29.46 19.695 27.475 19.392 27.143 C 19.088 26.811 18.84 26.011 18.84 25.365 C 18.84 24.719 18.413 23.419 17.891 22.476 C 17.37 21.533 16.731 19.69 16.471 18.381 L 16 16 L 33.485 16 C 49.323 16 51.057 16.105 51.892 17.111 C 52.4 17.722 52.825 18.713 52.837 19.312 C 52.849 19.911 53.299 21.34 53.838 22.486 C 54.376 23.633 55.662 27.143 56.696 30.286 C 57.729 33.429 58.975 37 59.465 38.222 C 59.955 39.444 61.204 43.016 62.242 46.159 C 63.28 49.302 64.52 52.873 64.999 54.095 C 65.478 55.317 66.406 57.889 67.06 59.809 C 67.715 61.73 68.493 63.873 68.789 64.571 C 69.085 65.27 69.87 67.555 70.535 69.651 C 71.199 71.746 72.002 73.925 72.32 74.493 C 72.638 75.061 73.111 76.564 73.371 77.834 C 73.631 79.103 74.121 80.297 74.46 80.489 C 74.798 80.68 75.077 81.463 75.08 82.228 C 75.082 82.993 75.551 84.437 76.121 85.438 C 76.691 86.438 77.158 87.762 77.158 88.381 C 77.158 88.999 77.625 90.324 78.195 91.324 C 78.766 92.324 79.234 93.769 79.237 94.534 C 79.239 95.299 79.553 96.102 79.935 96.317 C 80.317 96.533 80.629 97.255 80.629 97.921 C 80.629 98.587 81.067 100.07 81.603 101.216 C 82.138 102.363 83.119 105.016 83.783 107.111 C 84.446 109.206 85.214 111.492 85.489 112.19 C 85.764 112.889 86.477 115.032 87.073 116.952 C 87.67 118.873 88.651 121.977 89.253 123.851 C 89.856 125.724 90.349 127.779 90.349 128.416 C 90.349 129.054 90.662 129.752 91.043 129.968 C 91.425 130.184 91.738 131.025 91.738 131.837 C 91.738 132.65 92.181 134.704 92.722 136.403 C 93.263 138.102 94.254 141.291 94.925 143.49 C 95.595 145.69 96.404 147.637 96.723 147.817 C 97.478 148.244 100.069 142.708 100.069 140.667 C 100.069 139.8 100.39 138.542 100.782 137.872 C 101.175 137.201 101.782 135.435 102.133 133.945 C 103.704 127.269 104.424 124.847 105.002 124.286 C 105.343 123.954 105.623 122.915 105.623 121.977 C 105.623 121.039 106.09 119.454 106.66 118.453 C 107.23 117.453 107.699 115.906 107.701 115.016 C 107.703 114.125 107.954 113.125 108.257 112.793 C 108.561 112.462 109.376 110.476 110.069 108.381 C 110.762 106.286 111.727 103.571 112.214 102.349 C 112.7 101.127 113.954 97.555 115 94.413 C 116.046 91.27 117.332 87.798 117.858 86.698 C 118.384 85.597 118.814 84.154 118.814 83.491 C 118.814 82.828 119.062 82.014 119.366 81.682 C 119.669 81.351 120.484 79.365 121.177 77.27 C 121.87 75.175 122.842 72.46 123.337 71.238 C 123.832 70.016 124.776 67.302 125.433 65.206 C 126.091 63.111 126.902 61.125 127.234 60.794 C 127.567 60.462 127.839 59.566 127.839 58.803 C 127.839 58.039 128.306 56.597 128.876 55.596 C 129.447 54.596 129.915 53.192 129.918 52.476 C 129.92 51.76 130.17 50.903 130.474 50.571 C 130.777 50.24 131.592 48.254 132.286 46.159 C 132.979 44.063 133.944 41.349 134.43 40.127 C 134.917 38.905 136.171 35.333 137.217 32.19 C 138.263 29.048 139.549 25.576 140.075 24.475 C 140.6 23.375 141.03 22.014 141.03 21.451 C 141.03 20.888 141.32 19.931 141.674 19.325 C 142.028 18.718 142.487 17.722 142.694 17.111 C 143.038 16.094 144.448 16 159.291 16 C 168.213 16 175.686 16.159 175.899 16.354 C 176.254 16.679 175.657 18.815 174.31 22.032 C 174.018 22.73 173.247 24.873 172.596 26.794 C 171.946 28.714 170.982 31.224 170.455 32.371 C 169.927 33.517 169.495 34.96 169.495 35.577 C 169.495 36.194 169.247 36.97 168.943 37.302 C 168.64 37.633 167.828 39.619 167.14 41.714 C 166.451 43.809 165.45 46.462 164.914 47.609 C 164.379 48.756 163.941 50.198 163.941 50.815 C 163.941 51.432 163.693 52.208 163.389 52.54 C 163.086 52.871 162.264 54.857 161.562 56.952 C 160.861 59.048 159.859 61.662 159.337 62.763 C 158.814 63.863 158.387 65.346 158.387 66.058 C 158.387 66.771 158.075 67.53 157.693 67.746 C 157.311 67.962 156.998 68.578 156.998 69.116 C 156.998 69.654 156.565 70.994 156.034 72.094 C 155.504 73.195 154.051 77.095 152.805 80.762 C 151.559 84.428 150.274 87.7 149.95 88.032 C 149.626 88.363 149.361 89.139 149.361 89.756 C 149.361 90.373 148.919 91.816 148.377 92.962 C 147.836 94.109 146.856 96.762 146.199 98.857 C 145.542 100.952 144.777 102.952 144.499 103.301 C 144.221 103.651 143.827 104.651 143.624 105.524 C 143.285 106.977 142.349 109.567 140.985 112.825 C 140.693 113.524 139.922 115.667 139.272 117.587 C 138.621 119.508 137.658 122.017 137.13 123.164 C 136.602 124.311 136.17 125.754 136.17 126.371 C 136.17 126.987 135.922 127.763 135.619 128.095 C 135.315 128.427 134.504 130.413 133.815 132.508 C 133.126 134.603 132.125 137.256 131.59 138.402 C 131.054 139.549 130.616 140.992 130.616 141.609 C 130.616 142.225 130.368 143.001 130.065 143.333 C 129.761 143.665 128.939 145.651 128.238 147.746 C 127.536 149.841 126.535 152.456 126.012 153.556 C 125.49 154.656 125.062 156.099 125.062 156.762 C 125.062 157.425 124.814 158.239 124.511 158.571 C 124.207 158.903 123.385 160.889 122.683 162.984 C 121.982 165.079 120.981 167.694 120.458 168.794 C 119.936 169.895 119.508 171.195 119.508 171.683 C 119.508 172.172 119.118 173.341 118.64 174.281 L 117.773 175.99 L 96.171 175.995 L 74.57 176 L 73.434 173.28 Z"
            fill="#000000"
            stroke-width="12"/>
    </g>
</svg>
